X:15783
T:Spaghetti Panic
M:6/8
L:1/8
C:Andy Cutting
R:Jig
K:G
EFG B2 B |\
ABc B2 d |\
edc BAG |\
A2 A BAG |\
EFG B2 B |\
ABc B2 d |\
edc BAG |\
AGF E3 :: BeB f2 g |\
gfe f2 B |\
edc BAG |\
A2 A BAG |\
BeB f2 g |\
gfe f2 B |\
edc BAG |\
AGF E3 :|


